X:148
T:Jenny Nettles
R:Reel
O:Scotland
M:4/4
K:Em
AB|\
c2B2 A2a2|efge dBGB|c2B2 A2a2|gefd e2::
AB|\
cdef gage|gage dBGB|cdef gagf|ea^gb a2:|
